!!!COM: Schubert, Franz
!!!CDT: 1797/01/31/-1828/11/19/
!!!CNT: Austrian
!!!OTL@@DE: Variationen &uuml;ber ein Thema von Anselm H&uuml;ttenbrenner
!!!OTL@EN: 13 Variations on a Theme by Anselm H&uuml;ttenbrenner
!!!OKY: A Minor
!!!SCT: D 576
!!!PDT: 1867///
!!!ODT: 1817/08//
!!!YEC: Copyright 2001 by Craig Stuart Sapp
!!!YEN: United States of America
!!!OMD: Var. 1
**kern	**kern
*clefF4	*clefG2
*k[]	*k[]
*M2/4	*M2/4
*MM72	*MM72
*>[A,A,B,B1,B,B2]	*>[A,A,B,B1,B,B2]
*>A	*>A
8AA'	4E 4A 4c 4e
16BB'	.
16C'	.
8D'	8E 8G# 8B 8e
8C'	8E 8A 8c 8e
=18	=18
8BB'	4E 4G# 4d 4e
8EE'	.
8FF#'	8E 8A 8d 8e
8GG#'	8E 8B 8d 8e
=19	=19
8AA'	4E 4A 4c 4e
16BB'	.
16C'	.
8DD'	4F 4A 4d 4f
16EE'	.
16FF'	.
=20	=20
8GGG'	2D 2G 2B 2d
16BBB'	.
16DD'	.
8GG'	.
8AA'	.
=21	=21
8BB'	4G 4d 4f 4g
16AA'	.
16GG'	.
8AA'	8G 8c 8f 8g
8BB'	8G 8d 8f 8g
=22	=22
8C'	4G 4e 4g
16E'	.
16D'	.
*	*^
8C'	8A	4e 4a
16BB'	16B	.
16AA'	16c	.
=23	=23	=23
8FF'	8d	4B 4a
16EE'	16e	.
16DD'	16f	.
*	*v	*v
8EE'	8B 8e 8g#
8EE'	8B 8d 8g#
=24	=24
8AA'	4A 4c 4a
16AAA'	.
16CC'	.
8EE'	4r
8GG#'	.
=25	=25
*>B	*>B
8AA'	4A 4c# 4gn 4a
16GG#'	.
16AA'	.
8BB'	8A 8d 8g 8a
8C#'	8A 8e 8g 8a
=26	=26
8D'	4A 4d 4f 4a
16F'	.
16E'	.
8D'	8A 8f 8a
8Cn'	8A# 8e 8a#
=27	=27
8BB'	4B 4d# 4an 4b
16AA#'	.
16BB'	.
8C#'	8B 8e 8a 8b
8D#'	8B 8f# 8a 8b
=28	=28
8E'	4B 4e 4g# 4b
16EE'	.
16DD#'	.
8EE'	8B 8e 8gn 8b
8DDn'	8B 8fn 8g 8b
=29	=29
*	*^
8CC'	8.g	4c 4e 4cc
16C'	.	.
16BB'	16g#	.
*	*v	*v
8AA'	8c 8e 8a 8cc
8GGn'	8c# 8e 8b- 8cc#
=30	=30
*	*^
8FF#'	8.a	4d 4dd
16AA'	.	.
16GG'	16bn	.
*	*v	*v
8FF#'	8d# 8cc 8dd#
8FFn'	8d# 8cc 8dd#
=31	=31
8EE'	4e 4a 4cc 4ee
16DD'	.
16CC'	.
8DD'	8e 8a 8b 8ee
8EE'	8e 8g# 8b 8ee
=32	=32
*>B1	*>B1
8AA'	4e 4a 4cc 4ee
16AAA'	.
16CC'	.
8EE'	4r
8GG#'	.
=33	=33
*>B2	*>B2
4AA	4e 4a 4cc 4ee
4r	4r
=|!	=|!
*-	*-
